dist/img/check-ico.svg

<svg width="22" height="22" viewBox="0 0 22 22" fill="none" xmlns="http://www.w3.org/2000/svg">
<path d="M9.4751 12.675L7.5001 10.675C7.28343 10.475 7.01677 10.375 6.7001 10.375C6.38343 10.375 6.1251 10.475 5.9251 10.675C5.69177 10.9083 5.5751 11.1833 5.5751 11.5C5.5751 11.8166 5.68343 12.0666 5.9001 12.25L8.7001 15.05C8.88343 15.2666 9.1376 15.375 9.4626 15.375C9.7876 15.375 10.0584 15.2666 10.2751 15.05L16.0001 9.32495C16.2001 9.12495 16.3001 8.87079 16.3001 8.56245C16.3001 8.25412 16.1918 7.98329 15.9751 7.74995C15.7418 7.54995 15.4709 7.44995 15.1626 7.44995C14.8543 7.44995 14.5834 7.55829 14.3501 7.77495L9.4751 12.675ZM11.0251 21.525C9.54176 21.525 8.1501 21.2583 6.8501 20.725C5.5501 20.1916 4.42927 19.4541 3.4876 18.5125C2.54593 17.5708 1.80843 16.45 1.2751 15.15C0.741764 13.85 0.475098 12.4583 0.475098 10.975C0.475098 9.50829 0.741764 8.13329 1.2751 6.84995C1.80843 5.56662 2.54593 4.44995 3.4876 3.49995C4.42927 2.54995 5.5501 1.80412 6.8501 1.26245C8.1501 0.720785 9.54176 0.449951 11.0251 0.449951C12.4918 0.449951 13.8668 0.720785 15.1501 1.26245C16.4334 1.80412 17.5501 2.54995 18.5001 3.49995C19.4501 4.44995 20.1959 5.56662 20.7376 6.84995C21.2793 8.13329 21.5501 9.51662 21.5501 11C21.5501 12.4666 21.2793 13.85 20.7376 15.15C20.1959 16.45 19.4501 17.5708 18.5001 18.5125C17.5501 19.4541 16.4334 20.1916 15.1501 20.725C13.8668 21.2583 12.4918 21.525 11.0251 21.525V21.525Z" fill="white"/>
</svg>

<svg width="22" height="22" fill="none" xmlns="http://www.w3.org/2000/svg"><path d="m9.475 12.675-1.975-2c-.217-.2-.483-.3-.8-.3-.317 0-.575.1-.775.3-.233.233-.35.508-.35.825 0 .317.108.567.325.75l2.8 2.8c.183.217.438.325.763.325s.595-.108.812-.325L16 9.325c.2-.2.3-.454.3-.763 0-.308-.108-.579-.325-.812a1.21 1.21 0 0 0-.812-.3c-.309 0-.58.108-.813.325l-4.875 4.9Zm1.55 8.85c-1.483 0-2.875-.267-4.175-.8-1.3-.533-2.42-1.27-3.362-2.213a10.136 10.136 0 0 1-2.213-3.362c-.533-1.3-.8-2.692-.8-4.175 0-1.467.267-2.842.8-4.125s1.27-2.4 2.213-3.35A10.198 10.198 0 0 1 6.85 1.262C8.15.721 9.542.45 11.025.45c1.467 0 2.842.27 4.125.812S17.55 2.55 18.5 3.5c.95.95 1.696 2.067 2.238 3.35.541 1.283.812 2.667.812 4.15 0 1.467-.27 2.85-.812 4.15a10.198 10.198 0 0 1-2.238 3.362c-.95.942-2.067 1.68-3.35 2.213-1.283.533-2.658.8-4.125.8Z" fill="#fff"/></svg>
